common/src/main/resources/icons/toolwindows/toolWindowModuleDependencies_dark.svg

<svg xmlns="http://www.w3.org/2000/svg" width="13" height="13" viewBox="0 0 24 24"><path fill="#FFCC80" d="M19 7H9V5h10m-4 10H9v-2h6m4-2H9V9h10m1-7H8a2 2 0 0 0-2 2v12a2 2 0 0 0 2 2h12a2 2 0 0 0 2-2V4a2 2 0 0 0-2-2M4 6H2v14a2 2 0 0 0 2 2h14v-2H4z"/></svg>

<!--
  - The MIT License (MIT)
  -
  - Copyright (c) 2015-2022 Elior "Mallowigi" Boukhobza
  -
  - Permission is hereby granted, free of charge, to any person obtaining a copy
  - of this software and associated documentation files (the "Software"), to deal
  - in the Software without restriction, including without limitation the rights
  - to use, copy, modify, merge, publish, distribute, sublicense, and/or sell
  - copies of the Software, and to permit persons to whom the Software is
  - furnished to do so, subject to the following conditions:
  -
  - The above copyright notice and this permission notice shall be included in all
  - copies or substantial portions of the Software.
  -
  - THE SOFTWARE IS PROVIDED "AS IS", WITHOUT WARRANTY OF ANY KIND, EXPRESS OR
  - IMPLIED, INCLUDING BUT NOT LIMITED TO THE WARRANTIES OF MERCHANTABILITY,
  - FITNESS FOR A PARTICULAR PURPOSE AND NONINFRINGEMENT. IN NO EVENT SHALL THE
  - AUTHORS OR COPYRIGHT HOLDERS BE LIABLE FOR ANY CLAIM, DAMAGES OR OTHER
  - LIABILITY, WHETHER IN AN ACTION OF CONTRACT, TORT OR OTHERWISE, ARISING FROM,
  - OUT OF OR IN CONNECTION WITH THE SOFTWARE OR THE USE OR OTHER DEALINGS IN THE
  - SOFTWARE.
  -
  -
  -->


<svg xmlns="http://www.w3.org/2000/svg" version="1.1" width="13px" height="13px" viewBox="0 0 24 24">
  <path fill="#FFCC80"
        d="M19,7H9V5H19M15,15H9V13H15M19,11H9V9H19M20,2H8A2,2 0 0,0 6,4V16A2,2 0 0,0 8,18H20A2,2 0 0,0 22,16V4A2,2 0 0,0 20,2M4,6H2V20A2,2 0 0,0 4,22H18V20H4V6Z" />
</svg>
